!!!SOCIAL_FUNCTION:	chief songs
!!!PDT:	1918

Specific Region: Dakotas, Minnesota, Montana, Nebraska
!!!REG: Dakotas and Montana
!!!LING_GROUP: Siouan
!!!LANG: Tone
!!!OTL@ENG: Song in Honor of Gabriel Renville (a)
!!!ONM: No. 189
**kern
*Imale
*clefF4
*k[b-e-a-d-]
*M2/4
*MM92
4f
(8.g
16f)
=2
(16f
8.e)
16f
8.c
=3||
*M3/4
2.c
=4||
*M2/4
4c
(16f
16c)
8c
=5
4B-
16B-
8.A-
=6||
*M3/4
(2A-
4F)
=7||
*M2/4
8.A-
16A-
8A-
8A-
=8
4c
(8f
16c)
16c
=9
4B-
(16B-
8A-)
16A-
=10||
*M3/4
16B-
8.A-
(16A-
8.F)
4A-
=11||
*M2/4
4F
4F
=12
[2F
=13
2F]
==
*-
!!!CNT: Native American -- Sioux
!!!MRD: 1911/07//-1914///
!!!OCL: Frances Densmore
!!!YOR1: Teton Sioux Music, Bulletin 61,
!!!YOR2: Bureau of American Ethnology, Smithsonian Institution
!!!PPR: Government Printing Office
!!!PPP: Washington, D.C.
!!!PDT: 1918///
!!!ENC: Craig Stuart Sapp
!!!END: 2002/03/25/
!!!EEV: 2002/03/31/
!!!AGN: Chief Song
!!!MPN: Moses Renville
!!!TXO: Santee Sioux
!!!MLC: Sisseton, South Dakota, United States of America
!!!ARL: 45.6/-97.1:
!!!catalog: Catalogue No. 665
!!!PPG: 454
!!!EFL: 194/245
!!!VTS: 2119109648
